static/src/inline-svgs/journalism/football-weekly-container/waveform.svg

<svg xmlns="http://www.w3.org/2000/svg" width="567" height="21" viewBox="0 0 567 21"><path d="M-2.004 17.98H.245v2.789h-2.249zm3.373-7.75h2.248v10.54H1.369zM4.742.806H6.99V20.77H4.742zm3.372.334h2.249v19.63H8.114zm3.373.39h2.248v19.24h-2.248zm3.372.837h2.249V20.77h-2.249zm3.373.948h2.248v17.454h-2.248zm3.373 1.004h2.248v16.45h-2.248zm3.372.501h2.249v15.95h-2.249zm3.373-1.337h2.248V20.77H28.35zm3.372.557h2.249v16.73h-2.249zm3.373.056h2.248V20.77h-2.248zm3.374.892h2.248v15.78h-2.248zm3.372.892h2.249v14.89h-2.249zm3.373-2.12h2.248v17.01h-2.248zm3.372.67h2.249v16.34h-2.249zm3.373-.947h2.248V20.77h-2.248zm3.373.725h2.248V20.77h-2.248zm3.372.724h2.249v15.837h-2.249zm3.373.725h2.248V20.77h-2.248zm3.372.892h2.249v14.22h-2.249zm3.373.781h2.248v13.439h-2.248zm3.373 1.227h2.248V20.77h-2.248zm3.372-.112h2.249v12.324h-2.249zm3.373-2.453h2.248V20.77H78.94zm3.372.613h2.249V20.77h-2.249zm3.373.614h2.248v13.55h-2.248zm3.373.278h2.248v13.272h-2.248zm3.372.112h2.249v13.16H92.43zm3.373.614h2.248V20.77h-2.248zm3.374.613h2.248V20.77h-2.248zm3.372.669h2.249v11.264h-2.249zm3.373.055h2.248v11.21h-2.248zm3.372-.222h2.249V20.77h-2.249zm3.373.612h2.248v10.82h-2.248zm3.373.67h2.248v10.149h-2.248zm3.372.447h2.249v9.703h-2.249zm3.373-6.135h2.248v15.837h-2.248zm3.372 1.004h2.249v14.833h-2.249zm3.373.279h2.248V20.77h-2.248zm3.373-.502h2.248V20.77h-2.248zm3.372-1.729h2.249v16.785h-2.249zm3.373.502h2.248v16.283h-2.248zm3.372.558h2.249V20.77h-2.249zm3.373.669h2.248V20.77h-2.248zm3.373.725h2.248V20.77h-2.248zm3.372.279h2.249V20.77h-2.249zm3.373-4.015h2.248V20.77h-2.248zm3.373.446h2.249V20.77h-2.249zm3.373-.335h2.248v17.956h-2.248zm3.373.893h2.248V20.77h-2.248zm3.372.613h2.249v16.45h-2.249zm3.373 1.004h2.248V20.77h-2.248zm3.372-.837h2.249v16.283h-2.249zm3.373-1.784h2.248V20.77h-2.248zm3.373-.335h2.248V20.77h-2.248zm3.372.613h2.249v17.789h-2.249zm3.373-1.003h2.248V20.77h-2.248zm3.372.613h2.249v18.18h-2.249zm3.373-.223h2.248V20.77h-2.248zm3.373.781h2.248V20.77h-2.248zm3.372.612h2.249v17.01h-2.249zm3.373 1.005h2.248V20.77h-2.248zm3.373.669h2.248v15.335h-2.248zm3.372 1.45h2.249v13.885h-2.249zm3.373.948h2.248V20.77h-2.248zm3.373-.836h2.249V20.77h-2.249zm3.373-3.626h2.248v17.4h-2.248zm3.373 1.116h2.248v16.283h-2.248zm3.372.893h2.249v15.39h-2.249zm3.373.557h2.248v14.833h-2.248zm3.372.334h2.249v14.5h-2.249zm3.373.224h2.248V20.77h-2.248zm3.373.725h2.248v13.55h-2.248zm3.372-4.294h2.249V20.77h-2.249zm3.373.167h2.248V20.77h-2.248zm3.372.668h2.249v17.01h-2.249zm3.373.726h2.248v16.283h-2.248zm3.373.781h2.248V20.77h-2.248zm3.372-.279h2.249v15.78h-2.249zm3.373.725h2.248V20.77h-2.248zm3.372-.223h2.249v15.28h-2.249zm3.373.557h2.248v14.722h-2.248zm3.373.502h2.248v14.22h-2.248zm3.373.67h2.249v13.55H281.3zm3.373.39h2.248v13.16h-2.248zm3.372.558h2.249V20.77h-2.249zm3.373-.279h2.248V20.77h-2.248zm3.373-.446h2.248V20.77h-2.248zm3.372.613h2.249V20.77h-2.249zm3.373.614h2.248v12.1h-2.248zm3.372.78h2.249v11.32h-2.249zm3.373.837h2.249V20.77h-2.249zm3.373-3.681h2.248V20.77h-2.248zm3.372.614h2.249v13.55h-2.249zm3.373-.335h2.248v13.885h-2.248zm3.373.613h2.248v13.272h-2.248zm3.372.613h2.249v12.66h-2.249zm3.373.503h2.248V20.77h-2.248zm3.372-6.303h2.249v18.46h-2.249zm3.373 1.507h2.248V20.77h-2.248zm3.373-.278h2.248v17.23h-2.248zm3.373.724h2.249v16.506h-2.249zm3.373.669h2.248v15.837h-2.248zm3.372-1.895h2.249V20.77h-2.249zm3.373 1.115h2.248V20.77h-2.248zm3.373 1.282h2.248v15.335h-2.248zm3.372.725h2.249v14.61h-2.249zm3.373.725h2.248v13.885h-2.248zm3.372.613h2.249v13.272h-2.249zm3.373-.055h2.248V20.77h-2.248zm3.373.837h2.248V20.77h-2.248zm3.372-.169h2.249v12.66h-2.249zm3.373-4.35h2.248v17.01h-2.248zm3.372.392h2.249V20.77h-2.249zm3.373.557h2.248v16.06h-2.248zm3.373.335h2.248V20.77h-2.248zm3.372.836h2.249v14.89h-2.249zm3.373.224h2.248V20.77h-2.248zm3.373.445h2.249v14.22h-2.249zm3.373.726h2.248V20.77h-2.248zm3.373-.502h2.248V20.77h-2.248zm3.372.669h2.249V20.77h-2.249zm3.373-1.617h2.248V20.77h-2.248zm3.372.724h2.249v14.22h-2.249zm3.373.614h2.248V20.77h-2.248zm3.373-1.338h2.248V20.77h-2.248zm3.372.669h2.249V20.77h-2.249zm3.373.39h2.248v13.885h-2.248zm3.372-1.674h2.249v15.56h-2.249zm3.373.894h2.248V20.77h-2.248zm3.373-2.12h2.248v16.785h-2.248zm3.372-.167h2.249V20.77h-2.249zm3.373.613h2.248v16.34h-2.248zm3.372.614h2.249V20.77h-2.249zm3.373.056h2.248v15.67h-2.248zm3.373-2.063h2.248V20.77h-2.248zm3.373-2.008h2.249v19.74h-2.249zm3.373 1.729h2.248V20.77h-2.248zm3.372.668h2.249v17.343h-2.249zm3.373.503h2.248v16.84h-2.248zm3.373 1.003h2.248v15.837h-2.248zm3.372-3.903h2.249v19.74h-2.249zm3.373.557h2.248V20.77h-2.248zm3.372 1.729h2.249v17.454h-2.249zm3.373 1.227h2.248V20.77h-2.248zm3.373-.836h2.248V20.77h-2.248zm3.372.836h2.249V20.77h-2.249zm3.373.335h2.248V20.77h-2.248zm3.372.725h2.249V20.77h-2.249zm3.373.557h2.248v14.61h-2.248zm3.373.67h2.248v13.94h-2.248zm3.372.891h2.249v13.05h-2.249zm3.373-.445h2.248V20.77h-2.248zm3.372-.168h2.249V20.77h-2.249zm3.374.446h2.248V20.77h-2.248zm3.373.112h2.248V20.77h-2.248zm3.372-5.355h2.249v18.46h-2.249zm3.373.559h2.248v17.9h-2.248zm3.372 1.004h2.249V20.77h-2.249zm3.373.501h2.248v16.395h-2.248zm3.373.558h2.248v15.837h-2.248zm3.372-.167h2.249V20.77h-2.249zm3.373-3.513h2.248V20.77h-2.248zm3.372.725h2.249V20.77h-2.249zm3.373.613h2.248v18.18h-2.248zm3.373 1.339h2.248v16.84h-2.248zM561.23.416h2.249V20.77h-2.249zm3.373 1.227h2.248V20.77h-2.248z" fill="#999"/></svg>

<svg xmlns="http://www.w3.org/2000/svg" width="567" height="21" viewBox="0 0 567 21">
    <g fill="#999" fill-rule="nonzero">
        <path d="M-2.004 17.98H.245v2.789h-2.249zM1.369 10.23h2.248v10.54H1.369zM4.742.806H6.99V20.77H4.742zM8.114 1.14h2.249v19.63H8.114zM11.487 1.53h2.248v19.24h-2.248zM14.859 2.367h2.249V20.77h-2.249zM18.232 3.315h2.248v17.454h-2.248zM21.605 4.319h2.248v16.45h-2.248zM24.977 4.82h2.249v15.95h-2.249zM28.35 3.483h2.248V20.77H28.35zM31.722 4.04h2.249v16.73h-2.249zM35.095 4.096h2.248V20.77h-2.248zM38.469 4.988h2.248v15.78h-2.248zM41.841 5.88h2.249v14.89h-2.249zM45.214 3.76h2.248V20.77h-2.248zM48.586 4.43h2.249v16.34h-2.249zM51.959 3.483h2.248V20.77h-2.248zM55.332 4.208h2.248V20.77h-2.248zM58.704 4.932h2.249v15.837h-2.249zM62.077 5.657h2.248V20.77h-2.248zM65.449 6.549h2.249v14.22h-2.249zM68.822 7.33h2.248v13.439h-2.248zM72.195 8.557h2.248V20.77h-2.248zM75.567 8.445h2.249v12.324h-2.249zM78.94 5.992h2.248V20.77H78.94zM82.312 6.605h2.249V20.77h-2.249zM85.685 7.219h2.248v13.55h-2.248zM89.058 7.497h2.248v13.272h-2.248zM92.43 7.609h2.249v13.16H92.43zM95.803 8.223h2.248V20.77h-2.248zM99.177 8.836h2.248V20.77h-2.248zM102.549 9.505h2.249v11.264h-2.249zM105.922 9.56h2.248v11.21h-2.248zM109.294 9.338h2.249V20.77h-2.249zM112.667 9.95h2.248v10.82h-2.248zM116.04 10.62h2.248v10.149h-2.248zM119.412 11.067h2.249v9.703h-2.249zM122.785 4.932h2.248v15.837h-2.248zM126.157 5.936h2.249v14.833h-2.249zM129.53 6.215h2.248V20.77h-2.248zM132.903 5.713h2.248V20.77h-2.248zM136.275 3.984h2.249v16.785h-2.249zM139.648 4.486h2.248v16.283h-2.248zM143.02 5.044h2.249V20.77h-2.249zM146.393 5.713h2.248V20.77h-2.248zM149.766 6.438h2.248V20.77h-2.248zM153.138 6.717h2.249V20.77h-2.249zM156.511 2.702h2.248V20.77h-2.248zM159.884 3.148h2.249V20.77h-2.249zM163.257 2.813h2.248v17.956h-2.248zM166.63 3.706h2.248V20.77h-2.248zM170.002 4.319h2.249v16.45h-2.249zM173.375 5.323h2.248V20.77h-2.248zM176.747 4.486h2.249v16.283h-2.249zM180.12 2.702h2.248V20.77h-2.248zM183.493 2.367h2.248V20.77h-2.248zM186.865 2.98h2.249v17.789h-2.249zM190.238 1.977h2.248V20.77h-2.248zM193.61 2.59h2.249v18.18h-2.249zM196.983 2.367h2.248V20.77h-2.248zM200.356 3.148h2.248V20.77h-2.248zM203.728 3.76h2.249V20.77h-2.249zM207.101 4.765h2.248V20.77h-2.248zM210.474 5.434h2.248v15.335h-2.248zM213.846 6.884h2.249v13.885h-2.249zM217.219 7.832h2.248V20.77h-2.248zM220.592 6.996h2.249V20.77h-2.249zM223.965 3.37h2.248v17.4h-2.248zM227.338 4.486h2.248v16.283h-2.248zM230.71 5.379h2.249v15.39h-2.249zM234.083 5.936h2.248v14.833h-2.248zM237.455 6.27h2.249v14.5h-2.249zM240.828 6.494h2.248V20.77h-2.248zM244.201 7.219h2.248v13.55h-2.248zM247.573 2.925h2.249V20.77h-2.249zM250.946 3.092h2.248V20.77h-2.248zM254.318 3.76h2.249V20.77h-2.249zM257.691 4.486h2.248v16.283h-2.248zM261.064 5.267h2.248V20.77h-2.248zM264.436 4.988h2.249v15.78h-2.249zM267.809 5.713h2.248V20.77h-2.248zM271.181 5.49h2.249v15.28h-2.249zM274.554 6.047h2.248v14.722h-2.248zM277.927 6.549h2.248v14.22h-2.248zM281.3 7.219h2.249v13.55H281.3zM284.673 7.609h2.248v13.16h-2.248zM288.045 8.167h2.249V20.77h-2.249zM291.418 7.888h2.248V20.77h-2.248zM294.791 7.442h2.248V20.77h-2.248zM298.163 8.055h2.249V20.77h-2.249zM301.536 8.669h2.248v12.1h-2.248zM304.908 9.449h2.249v11.32h-2.249zM308.281 10.286h2.249V20.77h-2.249zM311.654 6.605h2.248V20.77h-2.248zM315.026 7.219h2.249v13.55h-2.249zM318.399 6.884h2.248v13.885h-2.248zM321.772 7.497h2.248v13.272h-2.248zM325.144 8.11h2.249v12.66h-2.249zM328.517 8.613h2.248V20.77h-2.248zM331.889 2.31h2.249V20.77h-2.249zM335.262 3.817h2.248V20.77h-2.248zM338.635 3.539h2.248v17.23h-2.248zM342.008 4.263h2.249v16.506h-2.249zM345.381 4.932h2.248v15.837h-2.248zM348.753 3.037h2.249V20.77h-2.249zM352.126 4.152h2.248V20.77h-2.248zM355.499 5.434h2.248v15.335h-2.248zM358.871 6.159h2.249v14.61h-2.249zM362.244 6.884h2.248v13.885h-2.248zM365.616 7.497h2.249v13.272h-2.249zM368.989 7.442h2.248V20.77h-2.248zM372.362 8.279h2.248V20.77h-2.248zM375.734 8.11h2.249v12.66h-2.249zM379.107 3.76h2.248V20.77h-2.248zM382.479 4.152h2.249V20.77h-2.249zM385.852 4.709h2.248v16.06h-2.248zM389.225 5.044h2.248V20.77h-2.248zM392.597 5.88h2.249v14.89h-2.249zM395.97 6.104h2.248V20.77h-2.248zM399.343 6.549h2.249v14.22h-2.249zM402.716 7.275h2.248V20.77h-2.248zM406.089 6.773h2.248V20.77h-2.248zM409.461 7.442h2.249V20.77h-2.249zM412.834 5.825h2.248V20.77h-2.248zM416.206 6.549h2.249v14.22h-2.249zM419.579 7.163h2.248V20.77h-2.248zM422.952 5.825h2.248V20.77h-2.248zM426.324 6.494h2.249V20.77h-2.249zM429.697 6.884h2.248v13.885h-2.248zM433.069 5.21h2.249v15.56h-2.249zM436.442 6.104h2.248V20.77h-2.248zM439.815 3.984h2.248v16.785h-2.248zM443.187 3.817h2.249V20.77h-2.249zM446.56 4.43h2.248v16.34h-2.248zM449.932 5.044h2.249V20.77h-2.249zM453.305 5.1h2.248v15.67h-2.248zM456.678 3.037h2.248V20.77h-2.248zM460.051 1.029h2.249v19.74h-2.249zM463.424 2.758h2.248V20.77h-2.248zM466.796 3.426h2.249v17.343h-2.249zM470.169 3.929h2.248v16.84h-2.248zM473.542 4.932h2.248v15.837h-2.248zM476.914 1.029h2.249v19.74h-2.249zM480.287 1.586h2.248V20.77h-2.248zM483.659 3.315h2.249v17.454h-2.249zM487.032 4.542h2.248V20.77h-2.248zM490.405 3.706h2.248V20.77h-2.248zM493.777 4.542h2.249V20.77h-2.249zM497.15 4.877h2.248V20.77h-2.248zM500.522 5.602h2.249V20.77h-2.249zM503.895 6.159h2.248v14.61h-2.248zM507.268 6.829h2.248v13.94h-2.248zM510.64 7.72h2.249v13.05h-2.249zM514.013 7.275h2.248V20.77h-2.248zM517.385 7.107h2.249V20.77h-2.249zM520.759 7.553h2.248V20.77h-2.248zM524.132 7.665h2.248V20.77h-2.248zM527.504 2.31h2.249V20.77h-2.249zM530.877 2.869h2.248v17.9h-2.248zM534.249 3.873h2.249V20.77h-2.249zM537.622 4.374h2.248v16.395h-2.248zM540.995 4.932h2.248v15.837h-2.248zM544.367 4.765h2.249V20.77h-2.249zM547.74 1.252h2.248V20.77h-2.248zM551.112 1.977h2.249V20.77h-2.249zM554.485 2.59h2.248v18.18h-2.248zM557.858 3.929h2.248v16.84h-2.248zM561.23.416h2.249V20.77h-2.249zM564.603 1.643h2.248V20.77h-2.248z"/>
    </g>
</svg>
